X:1
T:A MAN'S A MAN FOR A' THAT
M:C|
L:1/8
Q:80
C:Burns Set
S:March
K:HP
|: {g}A/2B/2|
{Gdc}d3/2e/2{Gdc}d{e}A|
{gBd}B{Gdc}d{gef}e3/2{gf}g/2|  !
{fg}f3/2e/2{Gdc}d{e}A|
{g}B2{GdGe}B{g}A3/4B/4|
{Gdc}d3/2e/2{Gdc}d{e}A|  !
{gBd}B{Gdc}d{gef}e3/2{gf}g/2|
{fg}f3/2e/2{Gdc}dB/2|
{g}A2{GAG}A:| |:  !
{gf}g|
{fg}f3/2g/2{ag}a3/2f/2|
{gf}g3/2f/2{gef}e3/2{gf}g/2|  !
{fg}f3/2g/2{ag}a{GAG}A|
{g}B2{GdGe}B3/2{gf}g/2|
{afg}fg/2{ag}a3/2f/2|  !
{gf}g3/2f/2{gef}e3/2{gf}g/2|
{fg}f3/2e/2{Gdc}d3/2B/2|
{g}A2{GAG}A:|  !

